svgs/regular/indian-rupee-sign.svg

<svg xmlns="http://www.w3.org/2000/svg" viewBox="0 0 320 512"><!--! Font Awesome Pro 6.1.1 by @fontawesome - https://fontawesome.com License - https://fontawesome.com/license (Commercial License) Copyright 2022 Fonticons, Inc. --><path d="M.0016 56C.0016 42.75 10.75 32 24 32H296C309.3 32 320 42.75 320 56C320 69.25 309.3 80 296 80H211.3C229.1 99.83 241.4 124.6 246 152H296C309.3 152 320 162.7 320 176C320 189.3 309.3 200 296 200H246C234.6 268.1 175.4 320 104 320H98.89L261.1 436.5C272.7 444.2 275.2 459.2 267.5 469.9C259.8 480.7 244.8 483.2 234.1 475.5L10.05 315.5C1.562 309.5-2.037 298.6 1.147 288.7C4.331 278.7 13.57 272 24 272H104C148.7 272 186.3 241.4 196.1 200H24C10.75 200 .0016 189.3 .0016 176C.0016 162.7 10.75 152 24 152H196.1C186.3 110.6 148.7 80 104 80H24C10.75 80 .0016 69.25 .0016 56V56z"/></svg>

<svg xmlns="http://www.w3.org/2000/svg" viewBox="0 0 320 512"><!--! Font Awesome Pro 6.4.2 by @fontawesome - https://fontawesome.com License - https://fontawesome.com/license (Commercial License) Copyright 2023 Fonticons, Inc. --><path d="M0 56C0 42.7 10.7 32 24 32h80H296c13.3 0 24 10.7 24 24s-10.7 24-24 24H211.3c17.7 19.8 30.1 44.6 34.7 72h50c13.3 0 24 10.7 24 24s-10.7 24-24 24H246c-11.4 68.1-70.7 120-142 120H98.9L261.9 436.5c10.8 7.7 13.3 22.7 5.6 33.5s-22.7 13.3-33.5 5.6l-224-160C1.6 309.5-2 298.6 1.1 288.7S13.6 272 24 272h80c44.7 0 82.3-30.6 93-72H24c-13.3 0-24-10.7-24-24s10.7-24 24-24H197c-10.7-41.4-48.2-72-93-72H24C10.7 80 0 69.3 0 56z"/></svg>
